_assets/images/flag-wisconsin-icon-lead.svg

<svg xmlns="http://www.w3.org/2000/svg" width="184" height="300"><path d="M178.92 209.81c-2.65-3.84-5.57-6-7.74-10.53-1.78-3.7-5-9.72-5.3-14-.38-4.79 4.45-11.05.12-15a6.59 6.59 0 01-2.73-.34c-4.79-1.81-2.18.51-5.79-3.45-5.36-5.87-9.12-14.43-13.39-21.19 3-.31 2.29-9.1 1.73-12.17-.1-.57-.18-.93-.27-1.37a10.43 10.43 0 00-3.76-3 13 13 0 01-5.32-.43c-7.34-2-11.88-14.9-16-21.76 2.36-.2 3.74-16.92 1.73-19.08-3.93-4.22-14 3.92-16.92-3.6-3.41-3.1-4.61-8-6.53-12.23-.1-.23-.21-.52-.32-.77-1.34-2.13-2.48-4.37-3.92-6.43-.06-.08 0-.15-.1-.22-2.52-2.25-5.28-2.91-8.13 2.15-2 3.55-3.84 7.28-5.71 10.9-1.77 3.41-3 6.5-5.19 8.33h.25c-3.52 4.69-14.47-1.22-17.33 2.64-1.16 1.58-.26 11.53 0 13.63.49 3.89-1.12 6.9 4.92 5.09-2.85 5.55-5.21 12-8.79 17.13-3.78 5.36-4 4.23-11.46 4.23-8.32 0-6.89.19-6.89 8.58 0 8.58-1.21 8.59 7.37 8.59C40 152 35.21 167.09 29.18 170c-3 1.45-11-1.95-12.87.46s0 12.48 0 15.72c1.87-.44 4 .14 5.9-.14-2.95 5.29-7.44 19.26-14 22.71a26 26 0 00-2.07 2.1A23 23 0 001 227.42c8.48 17.45 34.73 7 48.58 6.15 14.16-.84 27.78 3.8 42.14 2.78 15-1.06 32.77-2.78 47.9-2.75 11.31 0 18.18 1.67 28.94-.91 5.12-.47 7.82-2.32 11.14-4.53 2.58-5.52 2.23-13.99-.78-18.35zm-6.11-.62h-26.55c1.4-7.82 25.74-8.19 26.55 0zM64.65 196.61H51.23c1.85-4.61 11.77-4.93 13.42 0zm-10-5.49a23.12 23.12 0 013.17-4.18 15 15 0 013.19 4.18zm13.13 11.41H47.76c1.69-6.3 18.39-6.32 20.06 0zm-25.64 1.57l-10-17.88H54zm29.28 5.22h-28c1.58-7.98 26.91-8.32 28 0zm-8-23.19h23.26L74.56 204zm34.49 10.38H85.24c1.76-4.51 11.11-4.83 12.7 0zm-9.58-5.42a22.24 22.24 0 013.17-4.18 15.13 15.13 0 013.19 4.18zm13.36 11.47H81.66c1.7-6.29 18.39-6.3 20.06 0zm4.33 6.64H77.77c1.88-8.2 26.17-7.94 28.28 0zm-9.12-23.07h24.25L109.35 204zm34.64 10.38H119c1.73-4.58 11-4.78 12.57 0zm-9.51-5.42a22.67 22.67 0 013.17-4.18 15.13 15.13 0 013.19 4.18zm13.15 11.31h-19.31c1.77-6.1 17.6-6.09 19.34 0zm3.4 6.79h-26.51c1.39-7.82 25.71-8.19 26.54 0zm-8.19-23h24L142.54 204zm39 16.25H150c1.81-6.14 17.65-6.13 19.39-.04zm-2.75-5.89h-13.85c2.07-5.29 11.21-4.01 13.85-.04zm-10.28-5.42a22.24 22.24 0 013.17-4.18 15.09 15.09 0 013.18 4.18zm-2.83-21h-28c1.61-8.05 26.89-8.41 28-.07zM82 157.45H69.28c1.72-4.55 11.11-4.81 12.72 0zM72.74 152a27.37 27.37 0 013.17-4.18 15.62 15.62 0 012.47 4.18 31.25 31.25 0 01-5.64 0zm12.41 11.41H65.81c1.77-6.14 17.6-6.13 19.34-.04zm-24.46 1.29q-5.41-9.6-10.82-19.19h22.22zm28.5 5.49h-26.7c1.43-8 25.41-8.08 26.7-.04zm-8.81-24.79h22.23L91.2 164.59zm33.46 12h-13.42c1.86-4.66 11.73-4.97 13.42-.04zm-10-5.49a23 23 0 013.16-4.18 15.13 15.13 0 013.19 4.18zM117 163.27H97.53c1.78-6.11 17.73-6.1 19.47 0zm3.6 6.79H93.2c1.58-7.83 26.34-8.24 27.42 0zm-8.48-24.66h22.22L123 164.59q-5.46-9.59-10.86-19.19zm37.78 17.87h-20.04c1.69-6.27 18.39-6.27 20.06 0zm-3.16-5.91h-13.4c1.85-4.63 11.72-4.92 13.42 0zm-10-5.49a22.72 22.72 0 013.18-4.18 15.09 15.09 0 013.18 4.18zm-9.67-23.53h-20.73c.75-7.59 20.02-7.62 20.78 0zm-31.84-12.77h-8.08c.94-4.33 6.9-3.98 8.08 0zm-5.77-4.77l1.44-4.18a15.71 15.71 0 011.6 4.18zm9 10.68H84.54c.93-5.91 12.66-5.58 13.87 0zm-18.75 1q-4.11-7.78-8.24-15.56h15q-3.41 7.8-6.81 15.57zm22.29 5.8H81.22c.78-7.6 20.03-7.63 20.78 0zm-6.19-21.43h15L104 122.42zm27.7 14.7h-13.86c.93-5.91 12.66-5.55 13.87 0zm-3.17-5.91h-8.08c.94-4.33 6.9-3.97 8.09 0zm-5.78-4.77l1.44-4.17a15.52 15.52 0 011.6 4.17zm-23.5-45.26a15.51 15.51 0 011.75 4.18H88.9a29.5 29.5 0 012.16-4.18zm4.48 8.94h-9c.64-4.55 8.11-4.23 9 0zm3.18 5.92H84c1-6.04 13.4-5.69 14.72 0zm3.6 6.79H80.67c.81-7.79 20.86-7.72 21.65 0zm-39.76 15.58c0-6.25-1.57-9.75 4.58-11.94 4.3-1.54 11 .59 15.54.79 7.84.35 15.94.25 23.78 0 2.45-.08 8.6-1.79 10.66-.42 2.61 1.76 2.92 8.49.23 10.91-2.93 2.64-8.31 1.32-12 1.13-14.22-.73-28.51-.47-42.79-.47zm6 7.89h-3l1.44-4.18a16.08 16.08 0 011.55 4.18zm2.73 4.77H63.2c.93-4.34 6.9-3.98 8.08 0zm3.17 5.91H60.59c.92-5.91 12.65-5.57 13.86 0zm3.6 6.78h-20.8c.74-7.57 20.03-7.61 20.79 0zm-37.78 13.07c0-8.64 1.06-8.6 9.27-8.65 11.67-.06 23.35 0 35 0 11.32 0 22.65.09 34 0 4.75 0 15.48-2.63 19.76-.85 2.75 1.15 7 6 2.67 9.5-3.49 2.82-18.94 0-23.52 0zm6.28 6.43a16 16 0 012.76 4.18 34.42 34.42 0 01-5.92 0 26.22 26.22 0 013.16-4.18zm5.36 9.67H40.66c1.5-4.56 9.73-4.5 11.26 0zm3.17 5.91H37.62c1.83-5.82 15.87-6.2 17.47 0zm3.6 6.79h-24.1c1.71-7.66 22.73-7.96 24.1 0zM20.3 182.19c0-10.92 6.44-7.88 15.94-7.88H130c8.35 0 22.45-2.84 30.76-.8 9.93 2.45 1.72 7.78-4.6 9-13.12 2.44-28.37-.27-41.69-.27zm10.06 8.9a43.92 43.92 0 01-6.07 0 36.11 36.11 0 013.46-4.62 15.07 15.07 0 012.61 4.62zm2.92 5.42H20.43c1.67-4.18 11.87-5.38 12.85 0zm2.62 5.9H17.57c1.64-5.75 17.21-6.29 18.33 0zm3.1 6.79H14.16c1.24-7.88 23.91-7.94 24.84 0zm107.62 18c-10.68-.58-58.85 2.8-69.12 2.69-11.7-.13-23.19-2.09-35.47-.85-11.72 1.19-28.23 5-38.42-2.88 45.3 0 127.82-2.17 173.13-2.17-7.8 6.79-20.74 3.76-30.14 3.24zm7-4.9c-15.69-.09-31.38 0-47.07 0H6.34c0-10.87 4.64-9.61 16.08-9.17 17.2.67 34.63.07 51.85.07h104.21c-6.07 8.89-13.63 9.18-24.84 9.13z"/></svg>

<svg xmlns="http://www.w3.org/2000/svg" width="184" height="300" viewBox="0 0 184 300"><title>flag-wisconsin-icon-lead</title><path d="M178.92,209.81c-2.65-3.84-5.57-6-7.74-10.53-1.78-3.7-5-9.72-5.3-14-.38-4.79,4.45-11.05.12-15a6.59,6.59,0,0,1-2.73-.34c-4.79-1.81-2.18.51-5.79-3.45-5.36-5.87-9.12-14.43-13.39-21.19,3-.31,2.29-9.1,1.73-12.17-.1-.57-.18-.93-.27-1.37a10.43,10.43,0,0,0-3.76-3,13,13,0,0,1-5.32-.43c-7.34-2-11.88-14.9-16-21.76,2.36-.2,3.74-16.92,1.73-19.08-3.93-4.22-14,3.92-16.92-3.6-3.41-3.1-4.61-8-6.53-12.23-.1-.23-.21-.52-.32-.77-1.34-2.13-2.48-4.37-3.92-6.43-.06-.08,0-.15-.1-.22-2.52-2.25-5.28-2.91-8.13,2.15-2,3.55-3.84,7.28-5.71,10.9-1.77,3.41-3,6.5-5.19,8.33l.25,0c-3.52,4.69-14.47-1.22-17.33,2.64-1.16,1.58-.26,11.53,0,13.63.49,3.89-1.12,6.9,4.92,5.09-2.85,5.55-5.21,12-8.79,17.13-3.78,5.36-4,4.23-11.46,4.23-8.32,0-6.89.19-6.89,8.58,0,8.58-1.21,8.59,7.37,8.59C40,152,35.21,167.09,29.18,170c-3,1.45-11-1.95-12.87.46s0,12.48,0,15.72c1.87-.44,4,.14,5.9-.14-2.95,5.29-7.44,19.26-14,22.71a26,26,0,0,0-2.07,2.1A23,23,0,0,0,1,227.42c8.48,17.45,34.73,7,48.58,6.15,14.16-.84,27.78,3.8,42.14,2.78,15-1.06,32.77-2.78,47.9-2.75,11.31,0,18.18,1.67,28.94-.91,5.12-.47,7.82-2.32,11.14-4.53C182.28,222.64,181.93,214.17,178.92,209.81Zm-6.11-.62H146.26C147.66,201.37,172,201,172.81,209.19ZM64.65,196.61H51.23C53.08,192,63,191.68,64.65,196.61Zm-10-5.49a23.12,23.12,0,0,1,3.17-4.18,15,15,0,0,1,3.19,4.18Zm13.13,11.41H47.76C49.45,196.23,66.15,196.21,67.82,202.53ZM42.14,204.1l-10-17.88H54Zm29.28,5.22h-28C45,201.34,70.33,201,71.42,209.32Zm-8-23.19H86.68L74.56,204Zm34.49,10.38H85.24C87,192,96.35,191.68,97.94,196.51Zm-9.58-5.42a22.24,22.24,0,0,1,3.17-4.18,15.13,15.13,0,0,1,3.19,4.18Zm13.36,11.47H81.66C83.36,196.27,100.05,196.26,101.72,202.56Zm4.33,6.64H77.77C79.65,201,103.94,201.26,106.05,209.2Zm-9.12-23.07h24.25L109.35,204Zm34.64,10.38H119C120.73,191.93,130,191.73,131.57,196.51Zm-9.51-5.42a22.67,22.67,0,0,1,3.17-4.18,15.13,15.13,0,0,1,3.19,4.18Zm13.15,11.31H115.87C117.64,196.3,133.47,196.31,135.21,202.4Zm3.4,6.79H112.07C113.46,201.37,137.78,201,138.61,209.19Zm-8.19-23h24L142.54,204Zm39,16.25H150C151.81,196.3,167.65,196.31,169.39,202.4Zm-2.75-5.89H152.79C154.86,191.26,164,192.54,166.64,196.51Zm-10.28-5.42a22.24,22.24,0,0,1,3.17-4.18,15.09,15.09,0,0,1,3.18,4.18Zm-2.83-21h-28C127.14,162.08,152.42,161.72,153.53,170.06ZM82,157.45H69.28C71,152.9,80.39,152.64,82,157.45ZM72.74,152a27.37,27.37,0,0,1,3.17-4.18A15.62,15.62,0,0,1,78.38,152,31.25,31.25,0,0,1,72.74,152Zm12.41,11.41H65.81C67.58,157.27,83.41,157.28,85.15,163.37Zm-24.46,1.29q-5.41-9.6-10.82-19.19H72.09Zm28.5,5.49H62.49C63.92,162.19,87.9,162.11,89.19,170.15ZM80.38,145.4h22.23L91.2,164.59Zm33.46,12H100.42C102.28,152.74,112.15,152.43,113.84,157.36Zm-10-5.49a23,23,0,0,1,3.16-4.18,15.13,15.13,0,0,1,3.19,4.18ZM117,163.27H97.53C99.31,157.16,115.26,157.17,117,163.27Zm3.6,6.79H93.2C94.78,162.23,119.54,161.82,120.62,170.06Zm-8.48-24.66h22.22L123,164.59Q117.54,155,112.14,145.4Zm37.78,17.87H129.86C131.55,157,148.25,157,149.92,163.27Zm-3.16-5.91H133.34C135.19,152.73,145.06,152.44,146.76,157.36Zm-10-5.49a22.72,22.72,0,0,1,3.18-4.18,15.09,15.09,0,0,1,3.18,4.18Zm-9.67-23.53H106.34C107.09,120.75,126.36,120.72,127.12,128.34ZM95.23,115.57H87.15C88.09,111.24,94.05,111.59,95.23,115.57Zm-5.77-4.77,1.44-4.18a15.71,15.71,0,0,1,1.6,4.18Zm9,10.68H84.54C85.47,115.57,97.2,115.9,98.41,121.48Zm-18.75,1q-4.11-7.78-8.24-15.56h15Q83.06,114.72,79.66,122.49ZM102,128.28H81.22C82,120.68,101.25,120.65,102,128.28Zm-6.19-21.43h15L104,122.42Zm27.7,14.7H109.65C110.58,115.64,122.31,116,123.52,121.55Zm-3.17-5.91h-8.08C113.2,111.31,119.16,111.67,120.35,115.64Zm-5.78-4.77L116,106.7a15.52,15.52,0,0,1,1.6,4.17ZM91.06,65.61a15.51,15.51,0,0,1,1.75,4.18H88.9A29.5,29.5,0,0,1,91.06,65.61Zm4.48,8.94h-9C87.18,70,94.65,70.32,95.54,74.55Zm3.18,5.92H84C85,74.43,97.4,74.78,98.72,80.47Zm3.6,6.79H80.67C81.48,79.47,101.53,79.54,102.32,87.26ZM62.56,102.84c0-6.25-1.57-9.75,4.58-11.94,4.3-1.54,11,.59,15.54.79,7.84.35,15.94.25,23.78,0,2.45-.08,8.6-1.79,10.66-.42,2.61,1.76,2.92,8.49.23,10.91-2.93,2.64-8.31,1.32-12,1.13C91.13,102.58,76.84,102.84,62.56,102.84Zm6,7.89h-3l1.44-4.18A16.08,16.08,0,0,1,68.55,110.73Zm2.73,4.77H63.2C64.13,111.16,70.1,111.52,71.28,115.5Zm3.17,5.91H60.59C61.51,115.5,73.24,115.84,74.45,121.41Zm3.6,6.78H57.26C58,120.62,77.29,120.58,78.05,128.19ZM40.28,141.26c0-8.64,1.06-8.6,9.27-8.65,11.67-.06,23.35,0,35,0,11.32,0,22.65.09,34,0,4.75,0,15.48-2.63,19.76-.85,2.75,1.15,7,6,2.67,9.5-3.49,2.82-18.94,0-23.52,0Zm6.28,6.43a16,16,0,0,1,2.76,4.18,34.42,34.42,0,0,1-5.92,0h0A26.22,26.22,0,0,1,46.56,147.69Zm5.36,9.67H40.66C42.16,152.8,50.39,152.86,51.92,157.36Zm3.17,5.91H37.62C39.45,157.45,53.49,157.07,55.09,163.27Zm3.6,6.79H34.59C36.3,162.4,57.32,162.1,58.69,170.06ZM20.3,182.19c0-10.92,6.44-7.88,15.94-7.88H130c8.35,0,22.45-2.84,30.76-.8,9.93,2.45,1.72,7.78-4.6,9-13.12,2.44-28.37-.27-41.69-.27Zm10.06,8.9a43.92,43.92,0,0,1-6.07,0h0a36.11,36.11,0,0,1,3.46-4.62A15.07,15.07,0,0,1,30.36,191.09Zm2.92,5.42H20.43C22.1,192.33,32.3,191.13,33.28,196.51Zm2.62,5.9H17.57C19.21,196.66,34.78,196.12,35.9,202.41ZM39,209.2H14.16C15.4,201.32,38.07,201.26,39,209.2Zm107.62,18c-10.68-.58-58.85,2.8-69.12,2.69-11.7-.13-23.19-2.09-35.47-.85-11.72,1.19-28.23,5-38.42-2.88,45.3,0,127.82-2.17,173.13-2.17C168.94,230.78,156,227.75,146.6,227.23Zm7-4.9c-15.69-.09-31.38,0-47.07,0H6.34c0-10.87,4.64-9.61,16.08-9.17,17.2.67,34.63.07,51.85.07H178.48C172.41,222.09,164.85,222.38,153.64,222.33Z"/></svg>
